X:1
T:Title
%%score { 1 | ( 2 3 ) }
L:1/8
M:4/4
K:C
V:1 treble nm="Grand Piano"
V:2 bass 
V:3 bass 
V:1
 z4 z2[Q:1/4=100] E2 | E3 _E =E2 F2 | E6 [DF]2 | [EG]3 [_E^F] [=EG]2 [=FA]2 | [EG]6 [EG]2 | %5
 [Ec]3 [Ec] B2 B2 | A2 A2 [EG]3 [EG] | [Ec]3 [Ec] B2 A2 |[M:3/4] G6 |[M:1/4] G2 | %10
[M:4/4] A3 G G2 G2 | [Ec]3 [EG] [EG]2 [EG]2 | [Ec]2 [CA]2 [CE]2 [A,C^F]2 | [G,B,G]6 [B,FG]2 | %14
 [EG]3 [EG] [_E^F]2 [=EG]2 |[M:9/8] [FA]2 [EG]- [EG] [CEc]2- [CEc] [CE]2 | %16
[M:4/4] [CEG]3 [CEG] [B,FA]2 [B,FG]2 |[M:3/4] [CEG]6 |[M:1/4] z2 |[M:4/4] e2 d2 c2 E2 | %20
 c2 B2 A2 c2 | c2 G2 [B,FA]2 [DFG]2 |[M:3/4] [Ec]6 |] %23
V:2
 z4 z2 [C,G,C]2 | [C,G,C]3 [C,^F,C] [C,G,C]2 [C,A,C]2 | [C,G,C]6 [C,C]2 | %3
 [C,C]3 [C,C] [C,C]2 [C,C]2 | [C,C]6 [C,G,]2 | [A,,A,]3 [A,,A,] [E,^G,D]2 [E,G,D]2 | %6
 [F,A,C]2 [F,CF]2 [C,C]3 [C,G,] | [A,,A,]3 [A,,A,] [D,^F,D]2 [D,F,C]2 |[M:3/4] [G,B,]6 | %9
[M:1/4] [G,B,]2 |[M:4/4][K:treble] [G,B,F]3 [G,B,F] [G,B,F]2 [G,B,F]2 | %11
 [C,C]3 [C,C] [C,C]2 [C,G,]2 | [A,,A,]2 [A,,A,]2 [A,,A,]2 D,2 | G,,6 G,,2 | %14
 [C,C]3 [C,C] [C,C]2 [C,C]2 |[M:9/8] [C,C]2 [C,C]- [C,C] A,,2- A,, A,,2 | %16
[M:4/4] G,,3 G,, G,,2 G,,2 |[M:3/4] C,6 |[M:1/4][K:treble] G2 |[M:4/4] G2 [B,F]2 [CE]2 z2 | %20
 E2 [^G,D]2 [A,C]2 [^F,_E]2 | E2 [CE]2 [G,,G,]4 |[M:3/4] [C,G,C]6 |] %23
V:3
 x8 | x8 | x8 | x8 | x8 | x8 | x8 | x8 |[M:3/4] x6 |[M:1/4] x2 |[M:4/4][K:treble] x8 | x8 | x8 | %13
 x8 | x8 |[M:9/8] x9 |[M:4/4] x8 |[M:3/4] x6 |[M:1/4][K:treble] x2 |[M:4/4] x8 | x8 | G,4 z4 | %22
[M:3/4] x6 |] %23

